src/icons/night-cloudy.svg

<svg
    width="29"
    height="20"
    viewBox="0 0 29 20"
    fill="none"
    xmlns="http://www.w3.org/2000/svg"
  >
    <path
      d="M23.3311 13.4668C26.6611 12.8115 28.6484 10.083 28.6484 8.28906C28.6484 7.84863 28.4551 7.53711 28.1006 7.53711C27.5527 7.53711 26.7578 8.21387 25.2539 8.21387C22.6543 8.22461 21.0215 6.64551 21.0215 4.27148C21.0215 2.81055 21.752 1.75781 21.752 1.16699C21.752 0.823242 21.5156 0.597656 21.0859 0.608398C19.1309 0.683594 16.5312 2.875 15.9297 5.78613C16.2949 6.12988 16.6387 6.58105 16.918 7.17188C20.4629 7.41895 23.1914 10.1152 23.3311 13.4668ZM4.58594 19.2139H16.499C19.5713 19.2139 21.9346 16.8721 21.9346 13.8428C21.9346 10.792 19.4961 8.51465 16.2305 8.50391C15.0059 6.17285 12.8037 4.67969 10.0215 4.67969C6.45508 4.67969 3.44727 7.41895 3.125 11.0068C1.25586 11.5439 0.0634766 13.123 0.0634766 15.0566C0.0634766 17.5273 1.90039 19.2139 4.58594 19.2139Z"
      fill="white"
    />
  </svg>

<svg xmlns="http://www.w3.org/2000/svg" width="29" height="20" fill="none"><path fill="#fff" d="M23.331 13.467c3.33-.655 5.317-3.384 5.317-5.178 0-.44-.193-.752-.547-.752-.548 0-1.343.677-2.847.677-2.6.01-4.233-1.568-4.233-3.943 0-1.46.731-2.513.731-3.104 0-.344-.236-.57-.666-.559-1.955.076-4.555 2.267-5.156 5.178.365.344.709.795.988 1.386 3.545.247 6.273 2.943 6.413 6.295ZM4.586 19.214h11.913c3.072 0 5.436-2.342 5.436-5.371 0-3.051-2.439-5.328-5.704-5.34-1.225-2.33-3.427-3.823-6.21-3.823-3.566 0-6.574 2.739-6.896 6.327-1.87.537-3.062 2.116-3.062 4.05 0 2.47 1.837 4.157 4.523 4.157Z"/></svg>
